svgs/sharp-solid/video-arrow-up-right.svg

<svg xmlns="http://www.w3.org/2000/svg" viewBox="0 0 576 512"><!--! Font Awesome Pro 6.6.0 by @fontawesome - https://fontawesome.com License - https://fontawesome.com/license (Commercial License) Copyright 2024 Fonticons, Inc. --><path d="M0 64l384 0 0 384L0 448 0 64zm576 0l0 384L416 337.1l0-162.3L576 64zM152 160l-24 0 0 48 24 0 54.1 0L103 311l-17 17L120 361.9l17-17 103-103 0 54.1 0 24 48 0 0-24 0-112 0-24-24 0-112 0z"/></svg>

<svg xmlns="http://www.w3.org/2000/svg" viewBox="0 0 576 512"><!--! Font Awesome Pro 6.5.2 by @fontawesome - https://fontawesome.com License - https://fontawesome.com/license (Commercial License) Copyright 2024 Fonticons, Inc. --><path d="M0 64H384V448H0V64zm576 0V448L416 337.1V174.9L576 64zM152 160H128v48h24 54.1L103 311l-17 17L120 361.9l17-17 103-103V296v24h48V296 184 160H264 152z"/></svg>
